src/16/actions/mic-on.svg

<svg xmlns="http://www.w3.org/2000/svg" width="16" height="16" viewBox="0 0 16 16">
 <defs>
  <style id="current-color-scheme" type="text/css">
   .ColorScheme-Text { color:#565656; } .ColorScheme-Highlight { color:#5294e2; }
  </style>
 </defs>
 <path style="fill:currentColor" class="ColorScheme-Text" d="M 8 0.001953125 C 6.3379 0.001953125 5 1.3400531 5 3.0019531 L 5 8.0039062 C 5 9.6658062 6.3379 11.001953 8 11.001953 C 9.6621 11.001953 11 9.6657063 11 8.0039062 L 11 3.0019531 C 11 1.3400531 9.6621 0.001953125 8 0.001953125 z M 2 7.0058594 L 2 8.0039062 C 2.00001 10.969106 4.168 13.431556 7 13.910156 L 7 16.001953 L 9 16.001953 L 9 13.910156 C 11.832 13.431496 14 10.969006 14 8.0039062 L 14 7.0058594 L 12 7.0058594 L 12 8.0039062 C 12 10.237006 10.2334 12.001953 8 12.001953 C 5.7666 12.001953 4 10.237006 4 8.0039062 L 4 7.0058594 L 2 7.0058594 z"/>
</svg>

<svg xmlns="http://www.w3.org/2000/svg" width="16" height="16"><defs><style id="current-color-scheme" type="text/css"></style></defs><path d="M8 .002c-1.662 0-3 1.338-3 3v5.002a2.992 2.992 0 0 0 3 2.998c1.662 0 3-1.336 3-2.998V3.002c0-1.662-1.338-3-3-3zM2 7.006v.998c0 2.965 2.168 5.428 5 5.906v2.092h2V13.91c2.832-.479 5-2.941 5-5.906v-.998h-2v.998a3.968 3.968 0 0 1-4 3.998c-2.233 0-4-1.765-4-3.998v-.998H2z" fill="currentColor" color="#565656"/></svg>
